!!!OTL: Songlang danghongjun
!!!ARE: Asia, China,ÿHenan Xinxian
!! IV, 132
!!!SCT: C1948
!!!YEM: Copyright 1995, estate of Helmut Schaffrath.
**kern
*ICvox
*Ivox
*M2/4
*k[b-e-]
*B-:
{8ddd
16ddd
16fff
8ddd
8ccc
=1
8ddd
16ddd
16fff
8ddd
8ccc
=2
8bb-
8bb-
8gg
8ddd
=3
2ccc}
=4
{8fff
8ddd
8ddd
8ddd
=5
8ccc
8ccc
8bb-
8gg
=6
8bb-
8ccc
8gg
8gg
=7
2ff}
=8
{4ddd
8ddd
8ddd
=9
8ddd
8bb-
8ccc
16ccc
16ccc
=10
8ccc
8bb-
8gg
8gg
=11
2ff}
=12
{8gg
8ccc
8ccc
8ccc
=13
4gg
8bb-
8gg
=14
2ff}
==
!!!AGN: Xiaodiao, Wanglang diao
!!!AMT: simple duple
!!!AIN: vox
!!!EED: Helmut Schaffrath
!!!EEV: 1.0
*-
